X:43
T:Brittania's Promise
M:2/4
L:1/8
B:Thompson's Compleat Collection of 200 Favourite Country Dances, vol. 2 (London, 1765)
Z:Transcribed and edited by Flynn Titford-Mock, 2007
Z:abc's:AK/Fiddler's Companion
K:A
f | eAcA | GABd | cAeA | fAaA | eAcA | GABd | cAac | A/A/A A :|
|: E | CEAc | BEcE | Beec | BAGE | CEAc | BEcE | afec | A/A/A A :|
|: d | cAGA | EGBd | cAac | {c}BAGB | EGBd | cAac | BdcB | A/A/A A :|

